img/icons/volume-icon.svg

<svg width="18" height="18" viewBox="0 0 18 18" fill="none" xmlns="http://www.w3.org/2000/svg">
<path d="M9.00542 14.6111C9.00542 14.9282 8.8222 15.2163 8.53548 15.3507C8.42462 15.4032 8.30583 15.4285 8.18782 15.4285C8.00092 15.4285 7.81577 15.3643 7.66622 15.2403L3.19747 11.5373H0.817408C0.366044 11.5377 0 11.1714 0 10.7201V7.46339C0 7.01183 0.366044 6.64578 0.817408 6.64578H3.19766L7.66642 2.94278C7.91057 2.74041 8.24915 2.69727 8.53567 2.8327C8.8222 2.96716 9.00561 3.25543 9.00561 3.57233L9.00542 14.6111ZM12.1468 13.3338C12.1269 13.3352 12.1077 13.336 12.088 13.336C11.8721 13.336 11.6639 13.2506 11.5101 13.0966L11.4008 12.9869C11.114 12.7008 11.0804 12.2475 11.3218 11.9221C11.934 11.0967 12.2571 10.1184 12.2571 9.09201C12.2571 7.98807 11.8902 6.95263 11.1961 6.09749C10.9318 5.77246 10.9562 5.3004 11.2524 5.00439L11.3615 4.89508C11.5248 4.73179 11.7436 4.6428 11.9804 4.65692C12.211 4.66853 12.4263 4.77706 12.5726 4.95583C13.5355 6.13406 14.0441 7.56457 14.0441 9.0922C14.0441 10.515 13.5943 11.8693 12.7431 13.008C12.6009 13.1978 12.3834 13.317 12.1468 13.3338ZM15.5263 15.86C15.3785 16.0347 15.1647 16.1395 14.9358 16.1492C14.9246 16.1496 14.9132 16.15 14.9016 16.15C14.6851 16.15 14.4773 16.0645 14.3235 15.9106L14.2161 15.8033C13.9161 15.5034 13.8957 15.0238 14.1685 14.6991C15.4868 13.1313 16.2131 11.1401 16.2131 9.09201C16.2131 6.96172 15.4356 4.91094 14.0242 3.31753C13.7381 2.99405 13.7526 2.50438 14.0571 2.1987L14.1643 2.09132C14.3233 1.93152 14.5299 1.84349 14.7669 1.85103C14.9919 1.85742 15.2048 1.95686 15.3543 2.12518C17.0603 4.04594 18 6.52042 18 9.09201C18.0004 11.5663 17.1218 13.97 15.5263 15.86Z" fill="#F8F9FC"/>
</svg>

<svg width="18" height="18" fill="none" xmlns="http://www.w3.org/2000/svg"><path d="M9.005 14.611a.817.817 0 01-1.339.63l-4.469-3.704H.817A.817.817 0 010 10.72V7.463c0-.451.366-.817.817-.817h2.38l4.47-3.703a.817.817 0 011.34.63L9.004 14.61zm3.142-1.277a.817.817 0 01-.637-.237l-.11-.11a.817.817 0 01-.078-1.065 4.717 4.717 0 00.935-2.83c0-1.104-.367-2.14-1.06-2.995a.817.817 0 01.055-1.093l.11-.109a.819.819 0 011.211.06 6.465 6.465 0 011.471 4.137c0 1.423-.45 2.777-1.3 3.916a.818.818 0 01-.597.326zm3.38 2.526a.818.818 0 01-1.204.05l-.107-.107c-.3-.3-.32-.78-.047-1.104a8.725 8.725 0 002.044-5.607c0-2.13-.777-4.181-2.189-5.774a.818.818 0 01.033-1.12l.107-.107a.817.817 0 011.19.034A10.48 10.48 0 0118 9.092c0 2.474-.878 4.878-2.474 6.768z" fill="#F8F9FC"/></svg>
